X:131
T:The Roscommon Reel
T:Master Crowley's
R:reel
M:4/4
D:Solas: Solas
K:Em
EFGA BAGB|AF~F2 dFAF|EFGA ~B3d|1 AFDE FEED:|2 AFDE FEEf||
eB~B2 efge|fa~a2 bfaf|eB~B2 efge|faaf efgf|
eB~B2 efge|fa~a2 bgag|faaf egfe|dBAF EFGA||
~B3A B2dB|AF~F2 dFAF|EBBA ~B3d|AFDE FEED|
EBBA B^cdB|AF~F2 dFAF|EBBA ~B3d|AFDE FEED||
